!!!OTL: Der Jaeger auf koeniglicher Heide
!!!OTL-incipit:Es wollt' ein Jaeger jagen,
!!!ARE: Europa, Mitteleuropa, Deutschland (), Brandenburg, Cottbus, Peitz
!!!YOR: 7, S. 156
!!    1839 aufgezeichnet
!!!SCT: Q0150
!!!TXL: @@DE
!!!YEM: Copyright 1995, estate of Helmut Schaffrath.
**kern	**text
*ICvox	*
!! Mixed meters:  3/8; 4/8
*M4/8	*
*k[b-]	*
*F:	*
!LO:TX:a:t=Mäßig	!
{8c	1._Es
=1	=1
8f	wollt'
8cc	ein
(16aL	Jä-
16g	.
16aJ)	.
16g	-ger
=2	=2
(8fL	ja-
8ccJ)	.
8a}	-gen,
{16ccL	woll-
16ccJ	-te
=3	=3
16ddL	ja-
16ddJ	-gen
16ccL	auf
16ccJ	der
16b-L	kö-
16b-J	-nig-
16aL	-li-
16aJ	-chen
=4	=4
4g	Heid,
8r}	.
{8c	1._Es
=5	=5
8f	wollt'
8cc	ein
(16aL	Jä-
16g	.
16aJ)	.
16g	-ger
=6	=6
(8fL	ja-
8ccJ)	.
8a}	-gen,
{16ccL	woll-
16ccJ	-te
=7	=7
16ddL	ja-
16ddJ	-gen
16ccL	auf
16ccJ	der
16b-L	kö-
16b-J	-nig-
16aL	-li-
16aJ	-chen
=8	=8
4g	Heid,
8.r}	.
{16cc	und
=9	=9
*M3/8	*
16ccL	was
16ccJ	be-
!LO:TUP:a	!
(24ccL	-ge-
24cc	-gent'
24ccJ)	er
16cc	auf
16cc	der
=10	=10
(16a/L	Rei-
16ccJ)	.
8f	-se?
16r}	.
{16f	Und
=11	=11
16ddL	was
16ddJ	be
!LO:TUP:a	!
(24ddL	ge-
24dd	-gent'
24ddJ)	er
16dd	auf
16dd	der
=12	=12
*M4/8	*
(8ccL	Rei-
8b-J)	.
8a}	-se?
{8f	ein
=13	=13
16g/L	Mäd-
16ddJ	-chen,
16ccL	war
16b-J	schnee-
8a	-weiß
8g	ge-
=14	=14
4f	-kleid't.
8.r}	.
==	==
!!!AGN: Ballade, Verfuehrung, verlorene Ehre
!! Kleinere Varianten zu den folgenden Strophen abgedruckt.
!!    Mehrere Pausen an Zeilenschluessen korrigiert.
!!!ONB: ESAC (Essen Associative Code) Database: BALLADE
!!!AMT: irregular
!!!AIN: vox
!!!EED: Helmut Schaffrath
!!!EEV: 1.0
!!!source: Deutsche Volkslieder mit ihren Melodien Balladen. Herausgegeben vom Deutschen Volksliedarchiv. Siebenterer Band. Freiburg/Breisgau 1982.
!!!page: 156
!!!ENC: Anna Maria Matuszewska
!!!EEV: 2025/03/07
*-	*-
